X:1
T: The Braes of Elchie's
C:
R:Jig
Q:180
K:C
M:6/8
L:1/16
|:A2|G3EG2 c6|e4d2 c4A2|G3EG2 f6|e2g2e2 d4A2|
G3EG2 c6|e4d2 c4B2|A2F2A2 F2c2E2|D6 C4:|
|:ef|g3eg2 g2e2c2|a3fa2 a2f2d2|g3eg2 g2e2c2|e3ce2 d2B2G2|
|1g3eg2 g2e2c2|a3fa2 a2f2d2|g3ec2 d2B2G2|c6 c4:|
|2A3FA2 A3FA2|G3EG2 G3EG2|A2F2A2 G2c2E2|D6 C4||
